public/img/participation-3.svg

<svg width="105" height="104" viewBox="0 0 105 104" fill="none" xmlns="http://www.w3.org/2000/svg">
<path d="M64 95.1551L63.9645 95.125L64 95.0849L63.0984 94.3221L56.7921 88.5215C56.7921 88.5215 56.6807 88.6369 56.4983 88.8075L56.3311 88.9882C54.8926 90.3179 50.2832 94.1666 44.8735 94.2419C44.757 94.2419 44.6404 94.2419 44.5239 94.2419C41.6772 93.9358 38.9015 92.4204 36.0852 89.6154C31.4099 84.9388 26.2078 82.4148 20.6107 82.0786C20.4537 82.0786 20.2966 82.0786 20.1447 82.0786C19.3027 82.0046 18.4568 81.9828 17.612 82.0133C9.18338 82.3546 2.92268 87.9545 0.795251 90.1122C0.339375 90.5186 0.0658488 90.8096 0.00506529 90.8598L0.0354571 90.8899C0.0262093 90.9068 0.0142314 90.9221 0 90.9351L0.901623 91.6878L7.20792 97.4934L7.5017 97.2024L7.66886 97.0217C9.10233 95.687 13.7168 91.8383 19.1266 91.7681C19.2431 91.7681 19.3545 91.7681 19.471 91.7681C22.3228 92.0741 25.0935 93.5895 27.9098 96.3945C32.5901 101.051 37.782 103.575 43.3792 103.921C43.5311 103.921 43.6882 103.921 43.8452 103.921C44.6872 103.995 45.5331 104.017 46.3778 103.987C54.8065 103.645 61.0672 98.0504 63.1946 95.8927C63.6353 95.4712 63.9139 95.1852 63.9696 95.125" fill="#EFC825"/>
<path d="M32.168 3.83333C32.168 14.1833 38.148 23.6133 47.5013 28.06V84.3333H55.168V57.5H62.8346V84.3333H70.5013V28.0217C79.8546 23.6133 85.8346 14.1833 85.8346 3.83333H78.168C78.168 8.91664 76.1486 13.7918 72.5542 17.3862C70.7744 19.166 68.6615 20.5778 66.3361 21.541C64.0107 22.5042 61.5183 23 59.0013 23C53.918 23 49.0429 20.9807 45.4484 17.3862C41.854 13.7918 39.8346 8.91664 39.8346 3.83333H32.168ZM59.0013 3.83333C54.7463 3.83333 51.3346 7.24499 51.3346 11.5C51.3346 15.755 54.7463 19.1667 59.0013 19.1667C63.2563 19.1667 66.668 15.755 66.668 11.5C66.668 7.24499 63.2563 3.83333 59.0013 3.83333Z" fill="#EFC825"/>
</svg>

<svg width="105" height="104" fill="none" xmlns="http://www.w3.org/2000/svg"><path d="M64 95.155l-.035-.03.035-.04-.902-.763-6.306-5.8s-.111.115-.294.285l-.167.181c-1.438 1.33-6.048 5.179-11.458 5.254h-.35c-2.846-.306-5.622-1.822-8.438-4.627-4.675-4.676-9.877-7.2-15.474-7.536h-.466a20.487 20.487 0 00-2.533-.066c-8.429.342-14.69 5.941-16.817 8.1-.456.406-.73.697-.79.747l.03.03a.175.175 0 01-.035.045l.902.753 6.306 5.805.294-.29.167-.181c1.433-1.335 6.048-5.184 11.458-5.254h.344c2.852.306 5.622 1.822 8.439 4.626 4.68 4.657 9.872 7.181 15.47 7.527h.465a20.59 20.59 0 002.533.066c8.428-.342 14.69-5.937 16.817-8.094.44-.422.719-.708.775-.768M32.168 3.833c0 10.35 5.98 19.78 15.333 24.227v56.273h7.667V57.5h7.667v26.833H70.5V28.022A26.75 26.75 0 0085.835 3.833h-7.667a19.167 19.167 0 01-38.333 0h-7.667zm26.833 0a7.64 7.64 0 00-7.666 7.667A7.64 7.64 0 0059 19.167a7.64 7.64 0 007.667-7.667A7.64 7.64 0 0059 3.833z" fill="#EFC825"/></svg>
